packages/core/src/svgs/tokens/branded/DOSE.svg

<svg width="24" height="24" viewBox="0 0 24 24" fill="none" xmlns="http://www.w3.org/2000/svg">
<path fill-rule="evenodd" clip-rule="evenodd" d="M11.5191 2H4.53774C4.28248 2.00407 4.03052 2.05839 3.79625 2.15985C3.56197 2.26132 3.34999 2.40794 3.17239 2.59134C2.9948 2.77474 2.85506 2.99133 2.76119 3.22875C2.6673 3.46617 2.62111 3.71974 2.62526 3.97501V20.0563C2.62356 20.5669 2.82353 21.0576 3.18167 21.4215C3.53981 21.7855 4.02715 21.9934 4.53774 22H11.5191C16.9565 22 21.3752 17.4875 21.3752 12.0001C21.3752 6.48126 16.9253 2 11.5191 2ZM11.3753 18.25C13.0328 18.25 14.6225 17.5916 15.7946 16.4194C16.9668 15.2473 17.6253 13.6576 17.6253 12.0001C17.6253 10.3424 16.9668 8.75269 15.7946 7.58059C14.6225 6.40849 13.0328 5.75 11.3753 5.75C9.71759 5.75 8.128 6.40849 6.95584 7.58059C5.78373 8.75269 5.12525 10.3424 5.12525 12.0001C5.12525 13.6576 5.78373 15.2473 6.95584 16.4194C8.128 17.5916 9.71759 18.25 11.3753 18.25Z" fill="#131519"/>
<path d="M11.3751 15.125C13.1125 15.125 14.5 13.8188 14.5 12.1751C14.5 10.5376 12.975 9.53131 11.8 8.42508C11.6867 8.31362 11.534 8.25116 11.3751 8.25116C11.2161 8.25116 11.0634 8.31362 10.9501 8.42508C9.77498 9.53131 8.25 10.5001 8.25 12.1751C8.25 13.8188 9.66881 15.125 11.3751 15.125Z" fill="#FF7A15"/>
</svg>

<svg xmlns="http://www.w3.org/2000/svg" width="24" height="24" fill="none" viewBox="0 0 24 24">
    <path fill="#131519" fill-rule="evenodd" d="M11.52 2H4.537a1.944 1.944 0 0 0-1.913 1.975v16.081A1.937 1.937 0 0 0 4.538 22h6.981c5.437 0 9.856-4.512 9.856-10 0-5.519-4.45-10-9.856-10m-.145 16.25a6.25 6.25 0 1 0 0-12.499 6.25 6.25 0 0 0 0 12.499" clip-rule="evenodd"/>
    <path fill="#FF7A15" d="M11.375 15.125c1.738 0 3.125-1.306 3.125-2.95 0-1.637-1.525-2.644-2.7-3.75a.606.606 0 0 0-.85 0c-1.175 1.106-2.7 2.075-2.7 3.75 0 1.644 1.419 2.95 3.125 2.95"/>
</svg>
